X: 2
T: McGovern's Favourite
R: reel
M: 4/4
L: 1/8
K: Ador
|:A2BG AGEF|GABd (3efg dg|eaaf gedB|(3ABc BG AGEG|A2BG AGEF|GABd (3efg dg|eaaf gedB|(3ABc BG A4:|||:a2ba gefa|gedB AGEG|g2af gedB|(3ABc BG A2Ag|a2ba gefa|gedB AGEF|GABd (3efg dg|eaaf gedB:||


Tune 2430	Setting 15765

